X: 26520
T: Michael Ryan's
R: reel
M: 4/4
K: Gmajor
D3G B2Ac|BG~G2 AEGE|DEGA BGBc|1 dBAG EGGE:|2 dBAG EGG2||
|:A3d f2eg|fd~d2 eBdB|A2d2 f2fg|1 afed BddB:|2 afed Bdd2||
|:Bddg edgd|BddB AGEG|Bddg edgd|(3BdB Ac BGG2:|

